X:278
T:Sunrise, Sunset
O:klezmer
L:1/8
M:3/4
R:Waltz
K:Am
|| "Am"E2 A2 c2 | "E7"BA ^G2 B2 | "Am"A6 | E6 \
|  "Am"E2 A2 c2 | "E7"BA ^G2 B2 | "Am"(A6 | "A7"A6) |
|  "Dm"A2 d2 f2 | "A7"ed ^c2 e2 | "Dm"d6 | A6 \
|  "B"B6 | "B7"B6 | "E"(c6 | "E7"c6) ||
|| "Am"E2 A2 c2 | "E7"BA ^G2 B2 | "Am"A6 | E6 \
|  "Am"E2 A2 c2 | "E7"BA ^G2 B2 | "Am"(A6 | "A7"A6) |
|  "Dm"A2 d2 f2 | "A7"ed ^c2 e2 | "Dm"d6 | "B7"^d6  | \
|  "E"e6- | "E7"e6- | "E6"e6 | "E"[^GE][AF][BG][GE][AF][BG] ||
|: "Am"z2 [c2A] "Dm6"([d2B] | [d2B]) "Am"[c2A] "E7"[B2^G] \
|  "Am"z2 [c2A] "Dm6"([d2B] | [d2B]) "Am"[c2A] "E7"[B2^G] \
|  "Am"z2 [c2A] "Dm6"([d2B] | [d2B]) "Am"[c2A] "Dm"[d2B] \
|  "Am"[e6c] | "A7"[^cA][dB][ec][cA][dB][ec] |
|  "Dm"[f2d] [f2d] [f2d] | "G7"[fd][ec] [d2B] [f2d] | "C"[e6c] | "Am"[c6A] \
|  "Bm"[d2B] [d2B] [d2B] | "E7"[dB][cA] [B2^G] [d2B] |1 "Am"([c6A] | [c6A]) |2 "Am"([A6A] | [A6A]) :|
:1
T: Patch Tanz
M: 2/4
L: 1/16
K: Em
| "Em"G4 GAAG | GAAG "B7"GFFE | "Em"G4 GAAG | "B7"GFFE "Em"E4 \
| "Em"[G4B] [GB][Ac][Ac][GB] | [GB][Ac][Ac][GB] "B7"[GB][FA][FA][EG] | "Em"[G4B] [GB][Ac][Ac][GB] | "B7"[GB][FA][FA][EG] "Em"[E4G] ||
|| "D7"ABcA "G"B4 | .[B2G] .[B2G] .[B2G] z2 | "D7"FGAG A4 | "D".[F2D] "A7".[G2E] "D".[A2F] z2 \
| "D7"dcBA "G"B4 | .[B2G] .[B2G] .[B2G] z2 | "D7"FGAG A4 | "D".[F2D] "A7".[G2E] "D".[A2F] z2 ||
|| "D7"DEF2 "G"GAB2 | "B7"AGF2 "Em"E4 | "G"GDDG "F"G=FFE | "Em"E8 \
| "D7"DEF2 "G"GAB2 | dcB2 "Am"A4 | "G"GDDG "F"G=FFE | "Em"E8 |]





